X:31
T:Hambo-polska från Vrångebo
T:(Bengt Olsons notsamling)
R:Hambopolska
O:Linneryd, Småland
B:Småländsk Musiktradition
M:3/4
K:Gm
L:1/8
Z:Christian Fürst
|: g(>d d)>(c B)>A| (G>F) ED (C>E)| (D>F) dc (B>A) | (3(BAB) (d>B) GD| g(>d d)>(c B)>A| (G>F) ED (C>E) |
 (D>F) dc (B>A)| (3(DFA) G2 g2:| |: (3(DGA) (B>A) GD | (3(EDE) (G>E) (C>E) | (3(DFA) (e>d) cA | (3(BAB) (3(dBG) D2 |
(3(DGA) (B>A) GD | (3(EDE) (G>E) (C>E) | (3(DFA) (e>d) cA | (3(DFA) G2 g2 :|

